64x64/apps/pingus-icon.svg

<svg xmlns="http://www.w3.org/2000/svg" width="64" height="64" version="1.1">
 <circle style="opacity:0.2" cx="32" cy="33" r="28"/>
 <circle style="fill:#4f4f4f" cx="32" cy="32" r="28"/>
 <path style="opacity:0.2" d="M 20.999986,30 A 10.999985,10.639279 0 0 0 10.39746,37.849976 C 10.147738,38.411764 10,39.066636 10,39.853164 c 0,0.12048 0.01864,0.237126 0.02148,0.357056 A 10.999985,10.639279 0 0 0 10,40.640788 10.999985,10.639279 0 0 0 10.76538,44.536896 C 13.2726,52.284666 21.816926,58 31.99997,58 42.241338,58 50.823224,52.218538 53.274844,44.403002 a 10.999985,10.639279 0 0 0 0.725098,-3.762214 10.999985,10.639279 0 0 0 -0.0188,-0.496204 c 0.0019,-0.098 0.0188,-0.19306 0.0188,-0.29142 0,-0.762322 -0.14078,-1.399878 -0.375978,-1.95068 A 10.999985,10.639279 0 0 0 42.999956,30 10.999985,10.639279 0 0 0 32.123506,39.131176 c -0.0116,0.0048 -0.12354,0.04988 -0.12354,0.04988 0,0 -0.11198,-0.04502 -0.12354,-0.04988 A 10.999985,10.639279 0 0 0 20.999986,30 Z"/>
 <path style="fill:#f4f4f7" d="M 20.999986,29 A 10.999985,10.639279 0 0 0 10.39746,36.849976 C 10.147738,37.411764 10,38.066636 10,38.853164 c 0,0.12048 0.01864,0.237126 0.02148,0.357056 A 10.999985,10.639279 0 0 0 10,39.640788 10.999985,10.639279 0 0 0 10.76538,43.536896 C 13.2726,51.284666 21.816926,57 31.99997,57 42.241338,57 50.823224,51.218538 53.274844,43.403002 a 10.999985,10.639279 0 0 0 0.725098,-3.762214 10.999985,10.639279 0 0 0 -0.0188,-0.496204 c 0.0019,-0.098 0.0188,-0.19306 0.0188,-0.29142 0,-0.762322 -0.14078,-1.399878 -0.375978,-1.95068 A 10.999985,10.639279 0 0 0 42.999956,29 10.999985,10.639279 0 0 0 32.123506,38.131176 c -0.0116,0.0048 -0.12354,0.04988 -0.12354,0.04988 0,0 -0.11198,-0.04502 -0.12354,-0.04988 A 10.999985,10.639279 0 0 0 20.999986,29 Z"/>
 <circle style="fill:#17191e" cx="24" cy="41" r="3"/>
 <circle style="fill:#17191e" cx="40" cy="41" r="3"/>
 <path style="opacity:0.76700003;fill:#e31b1b" transform="matrix(1.5,0,0,1.2990381,-5.1689372,3.79042)" d="m 20.779291,31.72315 4,0 4,0 -2,3.464101 -2,3.464102 -2,-3.464102 z"/>
 <path style="opacity:0.1;fill:#f4f4f7" d="M 32 4 A 28 28 0 0 0 4 32 A 28 28 0 0 0 4.0175781 32.492188 A 28 28 0 0 1 32 5 A 28 28 0 0 1 59.974609 32.492188 A 28 28 0 0 0 60 32 A 28 28 0 0 0 32 4 z"/>
</svg>

<svg xmlns="http://www.w3.org/2000/svg" width="64" height="64"><circle style="opacity:.2" cx="32" cy="33" r="28"/><circle style="fill:#4f4f4f" cx="32" cy="32" r="28"/><path style="opacity:.2" d="M21 30a11 10.64 0 0 0-10.603 7.85c-.25.562-.397 1.217-.397 2.003 0 .12.019.237.021.357a11 10.64 0 0 0-.021.43 11 10.64 0 0 0 .765 3.897C13.273 52.285 21.817 58 32 58c10.241 0 18.823-5.781 21.275-13.597A11 10.64 0 0 0 54 40.641a11 10.64 0 0 0-.019-.496c.002-.098.019-.193.019-.292 0-.762-.14-1.4-.376-1.95A11 10.64 0 0 0 43 30a11 10.64 0 0 0-10.876 9.131l-.124.05-.124-.05A11 10.64 0 0 0 21 30z"/><path style="fill:#f4f4f7" d="M21 29a11 10.64 0 0 0-10.603 7.85c-.25.562-.397 1.217-.397 2.003 0 .12.019.237.021.357a11 10.64 0 0 0-.021.43 11 10.64 0 0 0 .765 3.897C13.273 51.285 21.817 57 32 57c10.241 0 18.823-5.781 21.275-13.597A11 10.64 0 0 0 54 39.641a11 10.64 0 0 0-.019-.496c.002-.098.019-.193.019-.292 0-.762-.14-1.4-.376-1.95A11 10.64 0 0 0 43 29a11 10.64 0 0 0-10.876 9.131l-.124.05-.124-.05A11 10.64 0 0 0 21 29z"/><circle style="fill:#17191e" cx="24" cy="41" r="3"/><circle style="fill:#17191e" cx="40" cy="41" r="3"/><path style="opacity:.76700003;fill:#e31b1b" transform="matrix(1.5 0 0 1.29904 -5.169 3.79)" d="M20.78 31.723h8l-2 3.464-2 3.464-2-3.464z"/><path style="opacity:.1;fill:#f4f4f7" d="M32 4A28 28 0 0 0 4 32a28 28 0 0 0 .018.492A28 28 0 0 1 32 5a28 28 0 0 1 27.975 27.492A28 28 0 0 0 60 32 28 28 0 0 0 32 4z"/></svg>
